!!!!SEGMENT: pl-kc--40102-iii-1-saf--002-053_zielenski-mikolaj--communiones-totius-anni-in-festo-s-marci-evangelistae-laetabitur-iustus-in-domino.krn
!!!cenid: 16xx:1584
!!!COM: Zieleński, Mikołaj
!!!COM-rismID: pe30013481
!!!CDT: <1611->1611
!!!CNT: Polish
!!!GTL: Communiones totius anni
!!!OTL: In festo S. Marci Evangelistae/Laetabitur iustus in Domino
!!!OMV: 053
!!!PDT: 1611
!!!AGN:
!!!SMS-siglum: PL-Kc
!!!SMS-shelfmark: 40102 III/1 Saf.
!!!SMS-shelfwork: 002-053 G
!!!SMS-variant:
!!!SMS-altvar:
!!!NIFC-rismSourceID: 990069887
!!!NIFC-islandoraID:
!!!URL-pdf-islandora:
!!!URL-scan: https://cyfrowe.mnk.pl/dlibra/publication/24235/edition/23926/content?ref=desc @EN{Scan on The National Museum in Krakow Website} @PL{Skany w portalu Biblioteka Cyfrowa Muzeum Narodowego w Krakowie}
!!!ONB-nifc: UWAGA: str. 74-75. Numer w źródle: 61. Uwaga: W xml metrum 2/1 do źródłowego C| i odpowiednio 3/1 do 3/2
!!!AIN: 4 organ
!!!key:
**kern	**kern	**kern	**kern
*group1	*group1	*group1	*group1
*part4	*part3	*part2	*part1
*staff4	*staff3	*staff2	*staff1
*I""Organo	*I""Organo	*I""Organo	*I""Organo
*I''org	*I''org	*I''org	*I''org
*Iorgan	*Iorgan	*Iorgan	*Iorgan
*ICklav	*ICklav	*ICklav	*ICklav
*clefF4	*clefC4	*clefC3	*clefC1
*k[]	*k[]	*k[]	*k[]
*C:	*C:	*C:	*C:
*M2/1	*M2/1	*M2/1	*M2/1
*met(C)	*met(C)	*met(C)	*met(C)
=1	=1	=1	=1
!	!	!LO:TX:a:t=Laetabitur iuſtus in Domino.	!LO:TX:a:t=In feſto S. Macri Euangeliſtae. a 6.
00r	2D/	2f\	2dd\
.	4.A/	4.e\	4.cc#X\
.	8A/	8e\	8cc#\
.	4D/	4a\	4dd\
.	4G/	4d\	4b\
.	4.C/	4.e\	4.ccny\
.	8C/	8e\	8cc\
=2-	=2-	=2-	=2-
.	2G/	2d\	2b\
.	2D/	2f\	2dd\
.	4A/	4e\	4cc\
.	4F/	4d\	4a\
.	4G#X/	4d\	4b-X\
.	4A/	4c#X/	4a\
*custos:AA	*custos:D	*custos:d	*custos:a
!!LO:LB:g=original
=3	=3	=3	=3
0r	2.D/	2d\	2a\
.	.	2f\	2dd\
.	4D/	.	.
.	4A/	4e\	4cc\
.	4A/	4c/	4ee\
.	4E/	4B/	4ee\
.	4E/	4e\	4b\
=4-	=4-	=4-	=4-
2r	2A/	2e\	1cc#X
2AA/	2A/	2c#X/	.
4.D/	4.A/	4.d\	1r
8D/	8A/	8d\	.
4GG/	4B\	4d\	.
4C/	4G/	4c#/	.
=5	=5	=5	=5
4.FF/	4.A/	4.f\	00r
8FF/	8A/	8f\	.
2C/	2G/	2e\	.
2GG/	2B-X\	2g\	.
4D/	4A/	4f\	.
4AA/	4c\	4a\	.
=6-	=6-	=6-	=6-
2BB-X/	2B-X\	2g\	.
2C/	2G/	2g\	.
2.FF/	2.A/	2f\	.
.	.	2a\	.
4F\	4c\	.	.
=7	=7	=7	=7
4G\	4B\	4g\	1r
4E\	4G/	4g\	.
4.D/	4.A/	4.f\	.
8D/	8A/	8f\	.
2A\	2A/	2e\	2r
2AA/	2E/	2e\	2ee\
=8-	=8-	=8-	=8-
4.E\	4.E/	4.e\	4.ee\
8E\	8E/	8e\	8ee\
4AA/	4E/	4e\	4cc#X\
4D/	4D/	4f#X\	4dd\
4.GG/	4.D/	4.g\	4.dd\
8GG/	8D/	8d\	8b\
4C/	4C/	4e\	4ccny\
4FF/	4C/	4fny\	4cc\
=9	=9	=9	=9
4.C/	4.C/	4.e\	4.cc\
8C/	8C/	8e\	8cc\
4GG/	4D/	4d\	4b\
4GG/	4G/	4d\	4dd\
4.D/	4.A/	4.d\	4.a\
8D/	8A/	8d\	8a\
2AA/	2A/	2c/	2cc\
=10-	=10-	=10-	=10-
2E\	2B\	2e\	2b\
4E\	4B\	4e\	4b\
4C#X/	4E/	4e\	4ee\
2D/	2F#X/	2d\	2a\
2BB/	2G#X/	2d\	2dd\
=11	=11	=11	=11
2AA/	2A/	2a\	2cc#X\
2FF/	2D/	2a\	4r
.	.	.	4ff\
1GG	2.G/	2.g\	4ee\
.	.	.	4dd\
.	.	.	2.dd\
.	4F/	4d\	.
=12-	=12-	=12-	=12-
1AA	2E/	2A/	.
.	.	.	8cc#X\L
.	.	.	8b\J
.	2E/	2e\	2cc#\
2D/	2D/	2f#X\	1dd
2r	4d\	4a\	.
.	4G/	4b\	.
=13	=13	=13	=13
0r	2c\	2cc\	0r
.	4A/	4cc\	.
.	4E/	4a\	.
.	2c\	2g\	.
.	2F/	2a\	.
=14-	=14-	=14-	=14-
4F\	4A/	4f\	4cc\
4D/	4d\	4f\	4dd\
2A\	2c\	2e\	2ee\
4F\	4c\	4A/	4ff\
4C/	4c\	4e\	4ee\
2D/	2A/	2f\	2dd\
=15	=15	=15	=15
4A\	4A/	4e\	4cc\
4AA/	4A/	4a\	4ee\
2E\	2B\	2g#X\	2ee\
2AA/	2A/	2a\	2cc#X\
4AA/	4A/	4a\	4ee\
4FF/	4A/	4a\	4ff\
=16-	=16-	=16-	=16-
2F\	2A/	2f\	2ccny\
4D/	4A/	4f\	4ff\
4C/	2c\	4c/	4ee\
1G	.	1d	1dd
.	8B\	.	.
.	8A\	.	.
.	2B\	.	.
=17	=17	=17	=17
1C	1c	1c	1ee
=18-	=18-	=18-	=18-
*M3/2	*M3/2	*M3/2	*M3/2
1.r	1.r	2c/	2ee\
.	.	2c/	2ee\
.	.	2G/	2dd\
=19-	=19-	=19-	=19-
0.r	0.r	1A	1cc
.	.	2d\	2dd\
=20-	=20-	=20-	=20-
.	.	1e	1b
.	.	2e\	2b\
=21	=21	=21	=21
2E\	2G/	2g\	2gg\
2E\	2G/	2g\	2gg\
2F\	2c\	2a\	2ff\
=22-	=22-	=22-	=22-
1C	1c	1g	1ee
2BB/	2d\	2g\	2dd\
=23-	=23-	=23-	=23-
1C	2.G/	1e	1cc
.	4A/	.	.
2GG/	2B\	2d\	2b\
=24-	=24-	=24-	=24-
2.G\	1B	1g	2.dd\
4F\	.	.	4ee\
4D/	2A/	2a\	2ff\
4E\	.	.	.
*custos:F	*custos:A	*custos:f	*custos:cc
!!LO:LB:g=original
=25	=25	=25	=25
2.F\	1A	1f	2.cc\
4E\	.	.	4dd\
4C/	2G/	2g\	2ee\
4D/	.	.	.
=26-	=26-	=26-	=26-
2.E\	1G	1e	2.b\
4D/	.	.	4cc\
4BB/	2G/	2d\	2dd\
4C/	.	.	.
=27-	=27-	=27-	=27-
2.D/	1d	1d	2.a\
8C/	.	.	4b\
8BB/	.	.	.
2AA/	2c\	2e\	2cc\
=28-	=28-	=28-	=28-
2AA/	2A/	2e\	2cc\
1E	1B	1e	1b
=29	=29	=29	=29
1AA	1A	1e	1cc#X
2A\	2c\	2e\	2ee\
=30-	=30-	=30-	=30-
1D	1d	2a\	2.ff\
.	.	1d	.
.	.	.	4ee\
2G\	2d\	.	2dd\
=31-	=31-	=31-	=31-
!	!LO:SIC:v:s=2c\	!	!
2C/	2B\	2g\	2ee\
2G\	1d	1g	1dd
2GG/	.	.	.
=32-	=32-	=32-	=32-
1.C	1.c	1.g	1.ee
=33	=33	=33	=33
0.r	0.r	2c/	2ee\
.	.	2c/	2ee\
.	.	2G/	2dd\
=34-	=34-	=34-	=34-
.	.	1A	1cc
.	.	2d\	2dd\
=35-	=35-	=35-	=35-
1.r	1.r	1e	1b
.	.	2e\	2b\
=36-	=36-	=36-	=36-
2E\	2G/	2g\	2gg\
2E\	2G/	2g\	2gg\
2F\	2c\	2a\	2ff\
=37	=37	=37	=37
1C	1c	1g	1ee
2BB/	2d\	2g\	2dd\
=38-	=38-	=38-	=38-
1C	2.G/	1e	1cc
.	4A/	.	.
2GG/	2B\	2d\	2b\
=39-	=39-	=39-	=39-
2.G\	1B	1g	2.dd\
4F\	.	.	4ee\
4D/	2A/	2a\	2ff\
4E\	.	.	.
=40-	=40-	=40-	=40-
2.F\	1A	1f	2.cc\
4E\	.	.	4dd\
4C/	2G/	2g\	2ee\
4D/	.	.	.
=41	=41	=41	=41
2.E\	1G	1e	2.b\
4D/	.	.	4cc\
4BB/	2G/	2d\	2dd\
4C/	.	.	.
=42-	=42-	=42-	=42-
2.D/	1d	1d	2.a\
8C/	.	.	4b\
8BB/	.	.	.
2AA/	2c\	2e\	2cc\
=43	=43	=43	=43
2AA/	2A/	2e\	2cc\
1E	1B	1e	1b
=44-	=44-	=44-	=44-
1AA	1A	1e	1cc#X
2A\	[<2c\	2e\	2ee\
=45	=45	=45	=45
1F	2c\]	1a	1ff
.	2A/	.	.
2G\	2d\	2g\	4ee\
.	.	.	4dd\
=46-	=46-	=46-	=46-
2D/	2d\	2f\	1dd
2A\	1e	1e	.
2AA/	.	.	2cc#X\
=47-	=47-	=47-	=47-
*M2/1	*M2/1	*M2/1	*M2/1
*met(C)	*met(C)	*met(C)	*met(C)
1D	2.d\	1f	2dd\
.	.	.	2ff\
.	4d\	.	.
1r	4.c\	1r	4.ee\
.	8A/	.	8ff\
.	4B-X\	.	4dd\
.	4G/	.	4ee\
=48	=48	=48	=48
2r	2F/	2r	1ff
2FF/	2c\	2a\	.
4.C/	4.G/	4.g\	1r
8AA/	8c\	8a\	.
4BB-X/	4d\	4f\	.
4GG/	4B-X\	4g\	.
=49-	=49-	=49-	=49-
1FF	2.A/	2a\	0r
.	.	2cc\	.
.	4F/	.	.
1r	4.G/	4.b\	.
.	8E/	8cc\	.
.	4F/	4a\	.
.	4D/	4b\	.
=50	=50	=50	=50
2r	2A/	2cc\	2r
4r	2A/	2e\	2cc\
4AA/	.	.	.
4.E\	4.B\	4.e\	4.b\
8C#X/	8E/	16f\	8ee\
.	.	16e\	.
4D/	4F#X/	4d\	4a\
4BB/	4G#X/	4d\	4dd\
=51-	=51-	=51-	=51-
2.AA/	2.A/	2a\	2cc#X\
.	.	2a\	2ee\
4C#X/	4A/	.	.
4.D/	4.A/	4.f\	4.ff\
8BB/	8B\	8g\	8dd\
4Cny/	4E/	4g\	4ee\
4AA/	4A/	4a\	4ff#X\
=52	=52	=52	=52
2GG/	4.B\	4d\	4gg\
.	.	4.d\	8g\
.	8c\	.	8a\
2G\	4d\	.	8b\
.	.	8c/	8a\
.	4B\	8d\	8b\
.	.	8e\	8cc\
*custos:F	*custos:A	*custos:f	*custos:dd
!!LO:PB:g=original
*lig	*	*	*
1F	2A/	4f\	4dd\
.	.	4d\	8a\
.	.	.	8b\
.	2A/	2.c/	8cc\
.	.	.	8b\
.	.	.	8cc\
.	.	.	8dd\
=53-	=53-	=53-	=53-
1E	2G/	.	4.ee\
.	.	4c/	.
.	.	.	16dd\
.	.	.	16cc\
.	2G/	2e\	8b\
.	.	.	8a\
.	.	.	8b\
.	.	.	8cc\
*Xlig	*	*	*
(<1D	8A/	2a\	4dd\
.	8G/	.	.
.	8F/	.	8dd\
.	8E/	.	8ee\
.	4D/	2f\	8ff\
.	.	.	8ee\
.	4A/	.	8ff\
.	.	.	8dd\
=54	=54	=54	=54
1C)	2E/	8g\	4ee\
.	.	8f\	.
.	.	8e\	8cc\
.	.	8d\	8dd\
.	2E/	4c/	8ee\
.	.	.	8dd\
.	.	4A/	8ee\
.	.	.	8cc\
2BB/	1D	2d\	4dd\
.	.	.	8b\
.	.	.	8cc\
2BB/	.	2B/	8dd\
.	.	.	8cc\
.	.	.	8dd\
.	.	.	8b\
=55-	=55-	=55-	=55-
2AA/	2C/	8e\	4cc\
.	.	8d\	.
.	.	8c/	8a\
.	.	8B/	8b\
2AA/	2c\	4A/	8cc\
.	.	.	8b\
.	.	4a\	8cc\
.	.	.	8a\
2.E\	2B\	[<1e	4b\
.	.	.	4e/
.	2B\	.	[<2ee\
4D/	.	.	.
=56	=56	=56	=56
2C#X/	2A/	2e\]	4ee\]
.	.	.	4dd\
2D/	2D/	2f\	2.dd\
1AA	2.E/	1e	.
.	.	.	8cc#X\
.	.	.	8b\
.	.	.	2cc#\
.	4E/	.	.
=57-	=57-	=57-	=57-
2D/	2D/	2f#X\	2dd\
4GG/	1D	1g	1dd
4AA/	.	.	.
4BB-X/	.	.	.
4GG/	.	.	.
2D/	2D/	2f#X\	2dd\
=58	=58	=58	=58
*	*lig	*	*
0GG	1D	2g\	4dd\
.	.	.	4cc\
.	.	1d	4b-X\
.	.	.	4a\
.	1G	.	4b-X\
.	.	.	4g/
.	.	1g	2dd\
*	*Xlig	*	*
=59-	=59-	=59-	=59-
0DDl	0dl	.	0ddl
.	.	4f#X\	.
.	.	4e\	.
.	.	1f#Xl	.
==	==	==	==
*-	*-	*-	*-
!!!system-decoration: *
!!!RDF**kern: > = above
!!!RDF**kern: < = below
!!!RDF**kern: l = terminal long
!!!ENC: Andrzej Gręziak
!!!END: 2021-12-22
!!!ENC: Andrzej Kubiczek
!!!END: 2021-12-27
!!!YEC: Copyright 2022 Narodowy Instytut Fryderyka Chopina (https://polishscores.org)
!!!YEM: Licence CC BY 4.0 (https://creativecommons.org/licenses/by/4.0)
